components/ui-node-icon/src/unpivot/unpivot.medium.svg

<svg width="24" height="24" viewBox="0 0 24 24" fill="none" xmlns="http://www.w3.org/2000/svg">
  <path d="M3 4.5C3 3.67157 3.67157 3 4.5 3H19.5C20.3284 3 21 3.67157 21 4.5V6.5C21 7.32843 20.3284 8 19.5 8H3V4.5Z" fill="var(--tbl--colors--icons--transformation--tertiary)"/>
  <path fill-rule="evenodd" clip-rule="evenodd" d="M3 4.5C3 3.67157 3.67157 3 4.5 3H8L8 19.5C8 20.3284 7.32843 21 6.5 21H4.5C3.67157 21 3 20.3284 3 19.5V4.5ZM13.9998 16L13.9998 17C15.5651 17 16.7953 16.5545 17.6269 15.7718C18.4483 14.9987 18.9998 13.785 18.9998 12C18.9998 11.4477 19.4475 11 19.9998 11C20.552 11 20.9998 11.4477 20.9998 12C20.9998 14.215 20.3012 16.0013 18.9976 17.2282C17.7042 18.4455 15.9345 19 13.9998 19V20C13.9998 20.4045 13.7561 20.7691 13.3824 20.9239C13.0088 21.0787 12.5786 20.9931 12.2926 20.7071L10.2926 18.7071C9.90213 18.3166 9.90213 17.6834 10.2926 17.2929L12.2926 15.2929C12.5786 15.0069 13.0088 14.9213 13.3824 15.0761C13.7561 15.2309 13.9998 15.5955 13.9998 16Z" fill="var(--tbl--colors--icons--transformation--primary)"/>
</svg>

<svg xmlns="http://www.w3.org/2000/svg" width="24" height="24" fill="none" viewBox="0 0 24 24">
  <path fill="var(--tbl--colors--icons--transformation--tertiary)" d="M3 4.5A1.5 1.5 0 0 1 4.5 3h15A1.5 1.5 0 0 1 21 4.5v2A1.5 1.5 0 0 1 19.5 8H3V4.5Z"/>
  <path fill="var(--tbl--colors--icons--transformation--primary)" fill-rule="evenodd" d="M3 4.5A1.5 1.5 0 0 1 4.5 3H8v16.5A1.5 1.5 0 0 1 6.5 21h-2A1.5 1.5 0 0 1 3 19.5v-15ZM14 16v1c1.565 0 2.795-.445 3.627-1.228C18.448 14.999 19 13.785 19 12a1 1 0 1 1 2 0c0 2.215-.699 4.001-2.002 5.228C17.704 18.445 15.934 19 14 19v1a1 1 0 0 1-1.707.707l-2-2a1 1 0 0 1 0-1.414l2-2A1 1 0 0 1 14 16Z" clip-rule="evenodd"/>
</svg>
